X: 8
T:North of the Grampians / Taobh Tuath Nan Garbh Bheann
M:4/4
L:1/8
Q:120
C:Capt. S. Fraser
S:James G-H learnt this tune from J Hunter
R:Strathspey
K:C
F |: E>F G>A G<E E<c | E/F/G G<c c<e d2 |  E>F G>A G<E E>G | F>D B,<G, B
,/C/D F2 :| !
e>c e/f/g e<c c>f | e<c e>f e/f/g f/g/a | e>c e/f/g e<c c>e | f>d B<G B/
c/d f2 | !
e>c e/f/g e<c c>f | e<c e>f e/f/g f/g/a | (3gfe (3dcB (3cBA (3GFE | F>D
B,<G, B,/C/D F2 ||

